assets/images/ic-edit.svg

<svg height="17" viewBox="0 0 17 17" width="17" xmlns="http://www.w3.org/2000/svg"><g fill="none" fill-rule="evenodd"><path d="m-1-1h19v19h-19z"/><path d="m16.6424779 4.85453214-4.4996208-4.49902571-10.26569281 10.26220787-1.49114286 5.9813043 5.99019286-1.3744379zm-14.59989147 10.11742856.93146643-3.7329814 9.16880424-9.16638787 2.7860936 2.78668857-9.16820927 9.2601429z" fill="#000" fill-rule="nonzero"/></g></svg>

<?xml version="1.0" encoding="UTF-8"?>
<svg width="17px" height="17px" viewBox="0 0 17 17" version="1.1" xmlns="http://www.w3.org/2000/svg" xmlns:xlink="http://www.w3.org/1999/xlink">
    <!-- Generator: sketchtool 49.3 (51167) - http://www.bohemiancoding.com/sketch -->
    <title>77CD8A5E-7B45-474E-83A6-D75D355374E9</title>
    <desc>Created with sketchtool.</desc>
    <defs></defs>
    <g id="ic-edit" stroke="none" stroke-width="1" fill="none" fill-rule="evenodd" opacity="1">
        <g id="TCF-Participant---Discussion" transform="translate(-1113.000000, -216.000000)">
            <g id="discussion" transform="translate(240.000000, 120.000000)">
                <g transform="translate(0.000000, 36.000000)" id="topic-header">
                    <g transform="translate(40.000000, 40.000000)">
                        <g id="ic-edit-passive" transform="translate(832.000000, 19.000000)">
                            <rect id="Rectangle" x="0" y="0" width="19" height="19"></rect>
                            <g id="edit" transform="translate(1.000000, 1.000000)" fill="#000000" fill-rule="nonzero">
                                <path d="M16.6424779,4.85453214 L12.1428571,0.355506429 L1.87716429,10.6177143 L0.386021429,16.5990186 L6.37621429,15.2245807 L16.6424779,4.85453214 Z M2.04258643,14.9719607 L2.97405286,11.2389793 L12.1428571,2.07259143 L14.9289507,4.85928 L5.76074143,14.1194229 L2.04258643,14.9719607 Z" id="Shape"></path>
                            </g>
                        </g>
                    </g>
                </g>
            </g>
        </g>
    </g>
</svg>
